images/studio_image/partners/client_tag_line.svg

<svg width="170" height="92" viewBox="0 0 170 92" fill="none" xmlns="http://www.w3.org/2000/svg">
<rect x="0.5" y="0.5" width="169" height="91" rx="3.5" stroke="#AFB1B8"/>
<path d="M85.425 43.4082C84.9819 42.8184 84.7699 42.1213 84.8203 41.4196V38.5364C84.8203 37.6526 85.0207 36.9809 85.4216 36.5214C85.8224 36.0619 86.511 35.8331 87.4871 35.8351C88.4044 35.8351 89.0555 36.0306 89.4405 36.4217C89.8605 36.9207 90.0648 37.5309 90.018 38.1463V38.8239H88.3772V38.1375C88.383 37.9129 88.3671 37.6882 88.3296 37.4659C88.306 37.3138 88.2234 37.1732 88.0952 37.067C87.9267 36.9525 87.7145 36.897 87.5007 36.9115C87.2759 36.897 87.0529 36.9556 86.8756 37.0758C86.7327 37.1935 86.6374 37.3477 86.6038 37.5157C86.5567 37.7511 86.5351 37.9897 86.5393 38.2285V41.7276C86.5134 42.0652 86.5858 42.403 86.7499 42.7102C86.8315 42.8141 86.9448 42.8965 87.0774 42.9483C87.2099 43.0001 87.3564 43.0192 87.5007 43.0035C87.7109 43.0184 87.9195 42.9615 88.0816 42.8451C88.2153 42.7305 88.3013 42.581 88.3262 42.4198C88.3645 42.1877 88.3816 41.9533 88.3772 41.7188V41.009H90.018V41.6572C90.0641 42.2988 89.8648 42.9356 89.4507 43.4698C89.0736 43.8981 88.4315 44.1122 87.4871 44.1122C86.5427 44.1122 85.8292 43.8834 85.425 43.4082Z" fill="#AFB1B8"/>
<path d="M92.2569 43.4376C91.8424 42.9888 91.6352 42.3347 91.6352 41.4695V38.4367C91.6352 37.5803 91.8424 36.9321 92.2569 36.4921C92.6713 36.0521 93.3644 35.8331 94.3359 35.8351C95.3007 35.8351 95.9904 36.0541 96.4048 36.4921C96.8193 36.9321 97.0299 37.5803 97.0299 38.4367V41.4695C97.0299 42.3259 96.8193 42.9829 96.398 43.4346C95.9768 43.8863 95.2906 44.1122 94.3359 44.1122C93.3813 44.1122 92.6747 43.8834 92.2569 43.4376ZM95.1003 42.7102C95.2487 42.4291 95.3163 42.1212 95.2974 41.8127V38.0994C95.3164 37.7969 95.2499 37.4949 95.1037 37.2195C95.0205 37.1134 94.9043 37.0296 94.7686 36.9777C94.6328 36.9259 94.4829 36.908 94.3359 36.9262C94.1885 36.9085 94.0383 36.9265 93.9021 36.9783C93.7659 37.0301 93.6491 37.1136 93.5648 37.2195C93.4154 37.4941 93.3477 37.7965 93.3678 38.0994V41.8303C93.3471 42.1389 93.4148 42.4471 93.5648 42.7278C93.6604 42.8224 93.7785 42.8982 93.9109 42.9502C94.0433 43.0021 94.1871 43.029 94.3326 43.029C94.478 43.029 94.6218 43.0021 94.7542 42.9502C94.8866 42.8982 95.0047 42.8224 95.1003 42.7278V42.7102Z" fill="#AFB1B8"/>
<path d="M99.0035 35.9236H100.77L102.098 41.5192L103.457 35.9236H105.176L105.35 44.0003H104.079L103.943 38.3871L102.632 44.0003H101.613L100.254 38.3665L100.128 44.0003H98.8439L99.0035 35.9236Z" fill="#AFB1B8"/>
<path d="M107.33 35.9236H110.082C111.667 35.9236 112.46 36.688 112.46 38.217C112.46 39.6814 111.625 40.4126 109.956 40.4106H109.019V44.0003H107.32L107.33 35.9236ZM109.681 39.3754C109.849 39.3938 110.019 39.3805 110.181 39.3364C110.342 39.2924 110.49 39.2186 110.615 39.1203C110.81 38.8475 110.896 38.5271 110.86 38.2082C110.869 37.9618 110.841 37.7154 110.778 37.475C110.754 37.3947 110.712 37.3194 110.653 37.2534C110.595 37.1874 110.522 37.1322 110.439 37.0908C110.203 36.9932 109.942 36.9488 109.681 36.9618H109.022V39.3754H109.681Z" fill="#AFB1B8"/>
<path d="M114.909 35.9236H116.734L118.606 44.0003H117.022L116.652 42.138H115.025L114.644 44.0003H113.038L114.909 35.9236ZM116.469 41.2025L115.833 37.8123L115.198 41.2025H116.469Z" fill="#AFB1B8"/>
<path d="M120.117 35.9236H121.306L123.582 40.5309V35.9236H124.992V44.0003H123.861L121.571 39.1906V44.0003H120.114L120.117 35.9236Z" fill="#AFB1B8"/>
<path d="M128.294 40.9208L126.402 35.9349H127.996L129.151 39.1376L130.234 35.9349H131.794L129.925 40.9208V44.0003H128.294V40.9208Z" fill="#AFB1B8"/>
<path d="M88.0477 47.5316V47.954H86.6617V51.2359H86.0807V47.954H84.6879V47.5316H88.0477Z" fill="#AFB1B8"/>
<path d="M92.3927 51.2362H91.9442C91.8987 51.2386 91.8538 51.2261 91.8185 51.201C91.7846 51.1795 91.7587 51.15 91.7438 51.116L91.3429 50.2361H89.4201L89.0192 51.116C89.0078 51.1528 88.9869 51.1868 88.958 51.2157C88.9225 51.2402 88.8778 51.2527 88.8324 51.2509H88.3839L90.0825 47.5468H90.6737L92.3927 51.2362ZM89.5797 49.8607H91.1833L90.5038 48.3533C90.4537 48.2393 90.4117 48.1227 90.3781 48.0043C90.3543 48.0747 90.3339 48.1421 90.3136 48.2008L90.2524 48.3562L89.5797 49.8607Z" fill="#AFB1B8"/>
<path d="M95.3211 50.8724C95.4275 50.8772 95.5341 50.8772 95.6404 50.8724C95.7323 50.8642 95.8232 50.8495 95.9122 50.8284C95.9954 50.8107 96.0772 50.7882 96.1568 50.7609C96.2316 50.7345 96.3063 50.7022 96.3844 50.67V49.8369H95.705C95.6882 49.8378 95.6714 49.8356 95.6556 49.8305C95.6398 49.8255 95.6254 49.8177 95.6133 49.8076C95.6021 49.7993 95.5933 49.7889 95.5874 49.7772C95.5815 49.7655 95.5787 49.7529 95.5793 49.7401V49.4556H96.8974V50.8753C96.7898 50.9417 96.6762 51.0006 96.5577 51.0513C96.4366 51.1029 96.3104 51.1451 96.1806 51.1774C96.0417 51.2127 95.8996 51.2382 95.7559 51.2537C95.5912 51.2695 95.4257 51.2773 95.26 51.2771C94.967 51.2793 94.6763 51.2325 94.4038 51.1393C94.1495 51.051 93.9184 50.9193 93.7244 50.7521C93.5353 50.5832 93.3864 50.3839 93.2862 50.1655C93.1791 49.9199 93.1261 49.6593 93.1299 49.397C93.1263 49.133 93.1781 48.8706 93.2828 48.6226C93.3805 48.4031 93.5297 48.2033 93.721 48.036C93.9149 47.8693 94.1461 47.7386 94.4005 47.6517C94.6914 47.5572 95.0001 47.5105 95.3109 47.5138C95.4691 47.5137 95.627 47.5245 95.7831 47.5461C95.9212 47.5655 96.0567 47.597 96.1874 47.64C96.3062 47.6785 96.4201 47.7277 96.5271 47.7866C96.6312 47.8445 96.7301 47.9092 96.8227 47.9802L96.6596 48.209C96.6468 48.2299 96.6278 48.2475 96.6045 48.2598C96.5812 48.2722 96.5545 48.279 96.5271 48.2794C96.4895 48.2784 96.453 48.2682 96.4218 48.2501C96.3708 48.2266 96.3165 48.1973 96.2553 48.1621C96.1831 48.123 96.1069 48.0896 96.0277 48.0624C95.9265 48.0273 95.8219 47.9998 95.7152 47.9802C95.5729 47.9576 95.4284 47.9468 95.2837 47.948C95.0596 47.9458 94.8371 47.9807 94.6281 48.0506C94.439 48.1161 94.2686 48.2162 94.1287 48.3439C93.9879 48.4771 93.8803 48.6339 93.8127 48.8045C93.661 49.2056 93.661 49.6381 93.8127 50.0393C93.8871 50.2135 94.0028 50.3724 94.1525 50.5057C94.2918 50.6328 94.4609 50.7328 94.6485 50.799C94.8645 50.8631 95.0934 50.888 95.3211 50.8724Z" fill="#AFB1B8"/>
<path d="M100.736 50.8136H102.591V51.2359H100.169V47.5316H100.75L100.736 50.8136Z" fill="#AFB1B8"/>
<path d="M104.521 51.2359H103.94V47.5316H104.521V51.2359Z" fill="#AFB1B8"/>
<path d="M106.681 47.5492C106.716 47.5662 106.746 47.5892 106.77 47.6167L109.253 50.409C109.25 50.3651 109.25 50.321 109.253 50.277C109.253 50.236 109.253 50.1949 109.253 50.1568V47.517H109.759V51.2362H109.467C109.424 51.2392 109.38 51.2321 109.341 51.2156C109.306 51.1972 109.275 51.1733 109.25 51.1452L106.77 48.3558C106.77 48.3998 106.77 48.4409 106.77 48.482C106.77 48.523 106.77 48.5612 106.77 48.5964V51.2362H106.284V47.5316H106.586C106.619 47.5317 106.651 47.5377 106.681 47.5492Z" fill="#AFB1B8"/>
<path d="M114.036 47.5316V47.9393H111.978V49.1624H113.646V49.5554H111.978V50.8195H114.036V51.2272H111.38V47.5316H114.036Z" fill="#AFB1B8"/>
<path d="M53.1617 24.6555L78.9568 30.9788V53.1368L53.1617 46.8164V24.6555ZM51.5073 22.7667V47.8928L80.6079 55.0285V29.9054L51.5073 22.7667Z" fill="#AFB1B8"/>
<path d="M67.1039 66.6922L38 59.5505V34.4271L67.1039 41.5659V66.6922Z" fill="#AFB1B8"/>
<path d="M51.9897 24.371L77.4484 30.615L66.6215 39.9649L41.1594 33.7179L51.9897 24.371ZM51.5073 22.7667L38 34.4277L67.1039 41.5662L80.6078 29.9053L51.5073 22.7667Z" fill="#AFB1B8"/>
<path d="M68.7414 65.2788L80.6078 55.0315L68.7414 52.1193V65.2788Z" fill="#AFB1B8"/>
</svg>

<svg width="170" height="92" fill="none" xmlns="http://www.w3.org/2000/svg"><rect x=".5" y=".5" width="169" height="91" rx="3.5" stroke="#AFB1B8"/><path d="M85.425 43.408a2.947 2.947 0 0 1-.605-1.988v-2.884c0-.883.2-1.555.602-2.015.4-.46 1.089-.688 2.065-.686.917 0 1.569.196 1.954.587.42.499.624 1.109.577 1.724v.678h-1.64v-.686c.005-.225-.01-.45-.048-.672a.65.65 0 0 0-.235-.399.95.95 0 0 0-.594-.156 1.005 1.005 0 0 0-.625.165.768.768 0 0 0-.272.44 3.332 3.332 0 0 0-.065.712v3.5c-.026.337.047.675.21.982a.77.77 0 0 0 .328.238.9.9 0 0 0 .424.056.893.893 0 0 0 .58-.159.704.704 0 0 0 .245-.425c.039-.232.056-.467.051-.701v-.71h1.641v.648a2.64 2.64 0 0 1-.567 1.813c-.377.428-1.02.642-1.964.642s-1.658-.229-2.062-.704ZM92.257 43.438c-.415-.45-.622-1.103-.622-1.969v-3.032c0-.857.207-1.505.622-1.945.414-.44 1.107-.659 2.079-.657.965 0 1.654.22 2.069.657.414.44.625 1.088.625 1.945v3.032c0 .857-.21 1.514-.632 1.966-.421.451-1.107.677-2.062.677-.955 0-1.661-.229-2.08-.674Zm2.843-.728c.149-.28.216-.589.197-.897v-3.714a1.65 1.65 0 0 0-.193-.88.776.776 0 0 0-.335-.241.907.907 0 0 0-.433-.052.918.918 0 0 0-.434.052.786.786 0 0 0-.337.241c-.15.275-.217.578-.197.88v3.731c-.02.309.047.617.197.898.095.094.213.17.346.222a1.158 1.158 0 0 0 .843 0c.133-.052.25-.128.346-.222v-.018ZM99.004 35.924h1.766l1.328 5.595 1.359-5.595h1.719L105.35 44h-1.271l-.136-5.613L102.632 44h-1.019l-1.359-5.633-.126 5.633h-1.284l.16-8.076ZM107.33 35.924h2.752c1.585 0 2.378.764 2.378 2.293 0 1.464-.835 2.196-2.504 2.194h-.937V44h-1.699l.01-8.077Zm2.351 3.451c.168.019.338.005.5-.039.161-.044.309-.117.434-.216.195-.273.281-.593.245-.912a2.526 2.526 0 0 0-.082-.733.582.582 0 0 0-.125-.222.7.7 0 0 0-.214-.162 1.762 1.762 0 0 0-.758-.13h-.659v2.414h.659ZM114.909 35.924h1.825L118.606 44h-1.584l-.37-1.862h-1.627L114.644 44h-1.606l1.871-8.076Zm1.56 5.279-.636-3.39-.635 3.39h1.271ZM120.117 35.924h1.189l2.276 4.607v-4.607h1.41V44h-1.131l-2.29-4.81V44h-1.457l.003-8.076ZM128.294 40.92l-1.892-4.985h1.594l1.155 3.203 1.083-3.203h1.56l-1.869 4.986V44h-1.631v-3.08ZM88.048 47.532v.422h-1.386v3.282h-.581v-3.282h-1.393v-.422h3.36ZM92.393 51.236h-.449a.2.2 0 0 1-.126-.035.194.194 0 0 1-.074-.085l-.401-.88H89.42l-.4.88a.243.243 0 0 1-.062.1.208.208 0 0 1-.126.035h-.448l1.698-3.704h.592l1.719 3.69Zm-2.813-1.375h1.603l-.68-1.508a2.699 2.699 0 0 1-.125-.349c-.024.07-.044.138-.064.197l-.062.155-.672 1.505ZM95.321 50.872c.106.005.213.005.32 0 .091-.008.182-.023.271-.044.083-.017.165-.04.245-.067.075-.027.15-.059.227-.091v-.833h-.679a.137.137 0 0 1-.092-.03.086.086 0 0 1-.026-.03.074.074 0 0 1-.008-.037v-.284h1.318v1.42a2.578 2.578 0 0 1-.716.301c-.14.036-.281.061-.425.077-.165.016-.33.023-.496.023a2.59 2.59 0 0 1-.856-.138 2.09 2.09 0 0 1-.68-.387 1.79 1.79 0 0 1-.438-.587 1.851 1.851 0 0 1-.156-.768 1.92 1.92 0 0 1 .153-.774c.097-.22.247-.42.438-.587.194-.167.425-.297.68-.384.29-.095.6-.142.91-.138.158 0 .316.01.472.032.138.02.274.051.404.094.12.038.233.088.34.147.104.057.203.122.296.193l-.163.229a.142.142 0 0 1-.055.05.17.17 0 0 1-.078.02.222.222 0 0 1-.105-.029 2.113 2.113 0 0 1-.167-.088 1.504 1.504 0 0 0-.227-.1 2.127 2.127 0 0 0-.313-.082 2.614 2.614 0 0 0-.431-.032 2.009 2.009 0 0 0-.656.103c-.189.065-.36.165-.5.293a1.29 1.29 0 0 0-.315.46 1.732 1.732 0 0 0 0 1.235c.074.175.19.333.34.467.139.127.308.227.495.293.217.064.445.089.673.073ZM100.736 50.814h1.855v.422h-2.422v-3.704h.581l-.014 3.282ZM104.521 51.236h-.581v-3.704h.581v3.704ZM106.681 47.55a.28.28 0 0 1 .089.067l2.483 2.792a.97.97 0 0 1 0-.132V47.517h.506v3.72h-.292a.277.277 0 0 1-.126-.021.322.322 0 0 1-.091-.07l-2.48-2.79v2.88h-.486v-3.704h.302c.033 0 .065.006.095.017ZM114.036 47.532v.407h-2.058v1.223h1.668v.393h-1.668v1.264h2.058v.408h-2.656v-3.695h2.656ZM53.162 24.655l25.795 6.324v22.158l-25.795-6.32V24.654Zm-1.655-1.888v25.126l29.1 7.136V29.905l-29.1-7.138Z" fill="#AFB1B8"/><path d="M67.104 66.692 38 59.551V34.427l29.104 7.139v25.126Z" fill="#AFB1B8"/><path d="m51.99 24.371 25.458 6.244-10.826 9.35-25.463-6.247 10.83-9.347Zm-.483-1.604L38 34.427l29.104 7.14 13.504-11.662-29.1-7.138ZM68.741 65.279l11.867-10.247-11.867-2.913v13.16Z" fill="#AFB1B8"/></svg>
